src/images/svg/be-square/extensive-network.svg

<svg width="64" height="64" viewBox="0 0 64 64" fill="none" xmlns="http://www.w3.org/2000/svg">
<path fill-rule="evenodd" clip-rule="evenodd" d="M38.3461 11.1465C38.3461 12.6352 37.8275 14.0024 36.9662 15.0859C40.5493 16.9309 42.8793 20.6563 42.8793 24.7461V27.466C42.8793 27.9665 42.4731 28.3727 41.9727 28.3727H22.0266C21.5261 28.3727 21.12 27.9665 21.12 27.466V24.7461C21.12 20.6563 23.45 16.9309 27.0331 15.0859C26.1718 14.0024 25.6532 12.6352 25.6532 11.1465C25.6532 7.6469 28.5 4.80005 31.9996 4.80005C35.4993 4.80005 38.3461 7.6469 38.3461 11.1465ZM36.5328 11.1465C36.5328 8.64692 34.4992 6.61333 31.9996 6.61333C29.5 6.61333 27.4664 8.64692 27.4664 11.1465C27.4664 12.6407 28.2026 13.958 29.3223 14.7849C29.4293 14.8638 29.539 14.9372 29.6514 15.0052C29.7611 15.0723 29.8745 15.1321 29.9896 15.1892C30.1374 15.2618 30.2852 15.3316 30.4393 15.3869C30.4826 15.4033 30.5274 15.4163 30.5723 15.4293C30.5969 15.4364 30.6216 15.4435 30.646 15.4513C31.5264 15.7205 32.4747 15.7205 33.3542 15.4513C33.3789 15.4434 33.4039 15.4361 33.4289 15.4287C33.4734 15.4156 33.5179 15.4026 33.5609 15.3869C33.7141 15.3316 33.8628 15.2618 34.0106 15.1892C34.1257 15.1312 34.2399 15.0723 34.3487 15.0052C34.4612 14.9372 34.5709 14.8638 34.6778 14.7849C35.7966 13.958 36.5328 12.6407 36.5328 11.1465ZM22.9332 26.5594H41.066V24.7461C41.066 21.115 38.8647 17.8239 35.541 16.4096C35.2835 16.5836 35.0088 16.7332 34.7259 16.8683L34.7233 16.8699L34.7214 16.8711C33.8954 17.2654 32.9743 17.493 31.9996 17.493C31.025 17.493 30.1039 17.2654 29.2779 16.872C29.2761 16.8711 29.2752 16.8701 29.2734 16.8692C28.9905 16.7342 28.7158 16.5846 28.4583 16.4105C25.1346 17.8239 22.9332 21.115 22.9332 24.7461V26.5594ZM22.026 41.9724C22.026 43.4611 21.5074 44.8283 20.6461 45.9118C24.2291 47.7568 26.5592 51.4822 26.5592 55.572V58.2919C26.5592 58.7924 26.153 59.1986 25.6525 59.1986H5.70644C5.20598 59.1986 4.7998 58.7924 4.7998 58.2919V55.572C4.7998 51.4822 7.12987 47.7568 10.7129 45.9118C9.8516 44.8283 9.333 43.4611 9.333 41.9724C9.333 38.4728 12.1799 35.6259 15.6795 35.6259C19.1791 35.6259 22.026 38.4728 22.026 41.9724ZM20.2127 41.9724C20.2127 39.4728 18.1791 37.4392 15.6795 37.4392C13.1799 37.4392 11.1463 39.4728 11.1463 41.9724C11.1463 43.4665 11.8825 44.7839 13.0022 45.6107C13.1092 45.6896 13.2189 45.7631 13.3313 45.8311C13.441 45.8982 13.5543 45.958 13.6695 46.0151C13.8172 46.0876 13.965 46.1574 14.1192 46.2128C14.1625 46.2291 14.2073 46.2421 14.2521 46.2551L14.2522 46.2551C14.2768 46.2623 14.3015 46.2694 14.3259 46.2771C15.2062 46.5464 16.1546 46.5464 17.034 46.2771C17.0588 46.2693 17.0838 46.262 17.1087 46.2546C17.1533 46.2415 17.1977 46.2284 17.2407 46.2128C17.3939 46.1574 17.5426 46.0876 17.6904 46.0151C17.8056 45.9571 17.9198 45.8982 18.0286 45.8311C18.141 45.7631 18.2507 45.6896 18.3577 45.6107C19.4765 44.7839 20.2127 43.4665 20.2127 41.9724ZM6.61308 55.572V57.3853H24.7459V55.572C24.7459 51.9409 22.5446 48.6498 19.2208 47.2354C18.9633 47.4095 18.6886 47.5591 18.4058 47.6942C18.4039 47.6951 18.403 47.696 18.4012 47.6969C17.5753 48.0913 16.6541 48.3189 15.6795 48.3189C14.7048 48.3189 13.7837 48.0913 12.9578 47.6978C12.9559 47.6969 12.955 47.696 12.9532 47.6951C12.6703 47.56 12.3956 47.4104 12.1381 47.2364C8.81441 48.6498 6.61308 51.9409 6.61308 55.572ZM53.2869 45.9118C54.1482 44.8283 54.6668 43.4611 54.6668 41.9724C54.6668 38.4728 51.8199 35.6259 48.3203 35.6259C44.8207 35.6259 41.9738 38.4728 41.9738 41.9724C41.9738 43.4611 42.4924 44.8283 43.3537 45.9118C39.7707 47.7568 37.4406 51.4822 37.4406 55.572V58.2919C37.4406 58.7924 37.8468 59.1986 38.3473 59.1986H58.2933C58.7938 59.1986 59.2 58.7924 59.2 58.2919V55.572C59.2 51.4822 56.8699 47.7568 53.2869 45.9118ZM48.3203 37.4392C50.8199 37.4392 52.8535 39.4728 52.8535 41.9724C52.8535 43.4665 52.1173 44.7839 50.9985 45.6107C50.8915 45.6896 50.7818 45.7631 50.6694 45.8311C50.5606 45.8982 50.4464 45.9571 50.3312 46.0151C50.1834 46.0876 50.0347 46.1574 49.8815 46.2128C49.8385 46.2284 49.7941 46.2415 49.7495 46.2546C49.7246 46.262 49.6996 46.2693 49.6748 46.2771C48.7954 46.5464 47.847 46.5464 46.9667 46.2771C46.9423 46.2694 46.9176 46.2623 46.893 46.2551L46.8929 46.2551L46.8929 46.2551L46.8929 46.2551L46.8928 46.2551L46.8928 46.2551L46.8928 46.2551C46.848 46.2421 46.8032 46.2291 46.76 46.2128C46.6058 46.1574 46.4581 46.0876 46.3103 46.0151C46.1951 45.958 46.0818 45.8982 45.9721 45.8311C45.8597 45.7631 45.75 45.6896 45.643 45.6107C44.5233 44.7839 43.7871 43.4665 43.7871 41.9724C43.7871 39.4728 45.8207 37.4392 48.3203 37.4392ZM39.2539 57.3853V55.572C39.2539 51.9409 41.4552 48.6498 44.779 47.2364C45.0364 47.4104 45.3112 47.56 45.594 47.6951C45.5958 47.696 45.5967 47.6969 45.5986 47.6978C46.4245 48.0913 47.3457 48.3189 48.3203 48.3189C49.2949 48.3189 50.2161 48.0913 51.042 47.6969L51.0443 47.6956L51.0466 47.6942C51.3294 47.5591 51.6041 47.4095 51.8616 47.2354C55.1854 48.6498 57.3867 51.9409 57.3867 55.572V57.3853H39.2539ZM32.9054 34.7104C32.9054 35.0142 33.0435 35.3016 33.2808 35.4914L36.3902 37.9782C36.7814 38.2911 36.8448 38.8619 36.5318 39.253C36.2189 39.644 35.6483 39.7074 35.2573 39.3945L32.6234 37.2875C32.2582 36.9953 31.7393 36.9953 31.3741 37.2875L28.7402 39.3945C28.3492 39.7074 27.7786 39.644 27.4657 39.253C27.1527 38.8619 27.2161 38.2911 27.6073 37.9782L30.7167 35.4914C30.954 35.3016 31.0921 35.0142 31.0921 34.7104V31.0931C31.0921 30.5924 31.498 30.1865 31.9987 30.1865C32.4995 30.1865 32.9054 30.5924 32.9054 31.0931V34.7104ZM32.9055 19.3065H31.0922V21.1198H32.9055V19.3065ZM31.0922 22.9331H32.9055V24.7464H31.0922V22.9331ZM49.2256 50.1323H47.4124V51.9456H49.2256V50.1323ZM47.4124 53.759H49.2256V55.5723H47.4124V53.759ZM16.5848 50.1323H14.7715V51.9456H16.5848V50.1323ZM14.7715 53.759H16.5848V55.5723H14.7715V53.759Z" fill="#FF444F"/>
</svg>

<svg xmlns="http://www.w3.org/2000/svg" width="64" height="64" fill="none"  xmlns:v="https://vecta.io/nano"><path fill-rule="evenodd" d="M38.346 11.147a6.31 6.31 0 0 1-1.38 3.939c3.583 1.845 5.913 5.57 5.913 9.66v2.72c0 .5-.406.907-.907.907H22.027c-.5 0-.907-.406-.907-.907v-2.72c0-4.09 2.33-7.815 5.913-9.66a6.31 6.31 0 0 1-1.38-3.939C25.653 7.647 28.5 4.8 32 4.8s6.346 2.847 6.346 6.346zm-1.813 0A4.54 4.54 0 0 0 32 6.613a4.54 4.54 0 0 0-4.533 4.533c0 1.494.736 2.812 1.856 3.638.107.079.217.152.329.22a4.35 4.35 0 0 0 .338.184 4.38 4.38 0 0 0 .45.198c.043.016.088.029.133.042l.074.022a4.64 4.64 0 0 0 2.708 0c.025-.008.05-.015.075-.023.044-.013.089-.026.132-.042a4.47 4.47 0 0 0 .45-.198 4.49 4.49 0 0 0 .338-.184c.112-.068.222-.141.329-.22 1.119-.827 1.855-2.144 1.855-3.638zm-13.6 15.413h18.133v-1.813c0-3.631-2.201-6.922-5.525-8.336a6.3 6.3 0 0 1-.815.459l-.003.002-.002.001a6.3 6.3 0 0 1-2.722.622c-.975 0-1.896-.228-2.722-.621-.287-.138-.562-.287-.82-.462-3.324 1.413-5.525 4.704-5.525 8.336v1.813zm-.907 15.413a6.31 6.31 0 0 1-1.38 3.939c3.583 1.845 5.913 5.57 5.913 9.66v2.72c0 .501-.406.907-.907.907H5.706c-.5 0-.907-.406-.907-.907v-2.72c0-4.09 2.33-7.815 5.913-9.66a6.31 6.31 0 0 1-1.38-3.939c0-3.5 2.847-6.346 6.347-6.346s6.346 2.847 6.346 6.346zm-1.813 0a4.54 4.54 0 0 0-4.533-4.533 4.54 4.54 0 0 0-4.533 4.533c0 1.494.736 2.812 1.856 3.638a4.34 4.34 0 0 0 .329.22 4.33 4.33 0 0 0 .338.184c.148.073.296.142.45.198.043.016.088.029.133.042h0l.074.022a4.64 4.64 0 0 0 2.708 0l.075-.022a2.23 2.23 0 0 0 .132-.042c.153-.055.302-.125.45-.198.115-.058.229-.117.338-.184a4.34 4.34 0 0 0 .329-.22c1.119-.827 1.855-2.144 1.855-3.638zm-13.6 13.6v1.813h18.133v-1.813c0-3.631-2.201-6.922-5.525-8.337-.258.174-.532.324-.815.459-.831.397-1.752.625-2.726.625a6.31 6.31 0 0 1-2.722-.621c-.288-.138-.562-.287-.82-.461-3.324 1.413-5.525 4.704-5.525 8.336zm46.674-9.66a6.31 6.31 0 0 0 1.38-3.939c0-3.5-2.847-6.346-6.346-6.346s-6.347 2.847-6.347 6.346a6.31 6.31 0 0 0 1.38 3.939c-3.583 1.845-5.913 5.57-5.913 9.66v2.72c0 .501.406.907.907.907h19.946c.5 0 .907-.406.907-.907v-2.72c0-4.09-2.33-7.815-5.913-9.66zm-4.967-8.473a4.54 4.54 0 0 1 4.533 4.533c0 1.494-.736 2.812-1.855 3.638a4.34 4.34 0 0 1-.329.22c-.109.067-.223.126-.338.184-.148.073-.297.142-.45.198a2.23 2.23 0 0 1-.132.042l-.075.022a4.64 4.64 0 0 1-2.708 0c-.024-.008-.049-.015-.074-.022h0c-.045-.013-.09-.026-.133-.042-.154-.055-.302-.125-.45-.198a4.33 4.33 0 0 1-.338-.184 4.34 4.34 0 0 1-.329-.22c-1.12-.827-1.856-2.144-1.856-3.638a4.54 4.54 0 0 1 4.533-4.533zm-9.066 19.946v-1.813c0-3.631 2.201-6.922 5.525-8.336.257.174.532.324.815.459a6.31 6.31 0 0 0 2.726.624 6.3 6.3 0 0 0 2.722-.622l.002-.001.002-.001c.283-.135.558-.285.815-.459 3.324 1.414 5.525 4.706 5.525 8.337v1.813H39.254zM32.905 34.71a1 1 0 0 0 .375.781l3.109 2.487c.391.313.455.884.142 1.275s-.883.454-1.274.142l-2.634-2.107a1 1 0 0 0-1.249 0l-2.634 2.107c-.391.313-.962.249-1.275-.142s-.25-.962.142-1.275l3.109-2.487a1 1 0 0 0 .375-.781v-3.617c0-.501.406-.907.907-.907s.907.406.907.907v3.617zm0-15.404h-1.813v1.813h1.813v-1.813zm-1.813 3.627h1.813v1.813h-1.813v-1.813zm18.133 27.199h-1.813v1.813h1.813v-1.813zm-1.813 3.627h1.813v1.813h-1.813v-1.813zm-30.828-3.627h-1.813v1.813h1.813v-1.813zm-1.813 3.627h1.813v1.813h-1.813v-1.813z" fill="#ff444f"/></svg>
